X: 37
T: PETER SANDERSON'S STRATHSPEY
C: Andrew Rankine
R: strathspey, shottish
B: "The Complete Andrew Rankine Collection of Scottish Country Dance Tunes" p.41 #1
Z: 2017 John Chambers <jc:trillian.mit.edu>
M: C
L: 1/8
K: A
|:\
"A"A2 A>B c>B A<a | "D"f>e d<f "A"e>d c<e |\
"Bm"d>c B>A "D7"G>F [1 E>D | "A"(3CEA c>e "Bm"d>c "E7"d<B :|
[2 "E7"(3Eed | "A"c<A "E7"B>G "A"A2 "E7"e2 |]\
"A"a2 f>e "A7"f>e c<e | "D"f>e d<f "A"e>d c<e |\
a2 f>e f>e c<e |
"Bm"d>c d>c "E7"B>f e>g |\
"A"a2 f>e "A7"f>e c<e | "D"f>e d<f "A"e>d c<e |\
"Bm"d>c B>A "E7"G>F (3Eed | "A"c<A "E7"B<G "A"A2- A2 |]

%%sep 1 1 500

